; generated by PrusaSlicer 2.7.4+win64 on 2024-09-08 at 15:55:05 UTC


;
;
; 

; external perimeters extrusion width = 0.45mm
; perimeters extrusion width = 0.45mm
; infill extrusion width = 0.45mm
; solid infill extrusion width = 0.45mm
; top infill extrusion width = 0.40mm
; first layer extrusion width = 0.42mm

M73 P0 R4
M73 Q0 S4
M201 X1000 Y1000 Z200 E5000 ; sets maximum accelerations, mm/sec^2
M203 X200 Y200 Z12 E120 ; sets maximum feedrates, mm / sec
M204 S1250 T1250 ; sets acceleration (S) and retract acceleration (R), mm/sec^2
M205 X8.00 Y8.00 Z0.40 E4.50 ; sets the jerk limits, mm/sec
M205 S0 T0 ; sets the minimum extruding and travel feed rate, mm/sec

; printing object Logo(V3).stl id:0 copy 0
; stop printing object Logo(V3).stl id:0 copy 0

;TYPE:Custom
M862.3 P "MK3S" ; printer model check
M862.1 P0.4 ; nozzle diameter check
M115 U3.13.3 ; tell printer latest fw version
G90 ; use absolute coordinates
M83 ; extruder relative mode
M104 S215 ; set extruder temp
M140 S60 ; set bed temp
M190 S60 ; wait for bed temp
M109 S215 ; wait for extruder temp
G28 W ; home all without mesh bed level
G80 X85.0409 Y65.0374 W79.919 H79.9251 ; mesh bed levelling

G1 Z0.2 F720
G1 Y-3 F1000 ; go outside print area
G92 E0
G1 X60 E9 F1000 ; intro line
G1 X100 E12.5 F1000 ; intro line
M73 P1 R4
M73 Q1 S4

G92 E0
M221 S95

; Don't change E values below. Excessive value can damage the printer.

M907 E538 ; set extruder motor current
G21 ; set units to millimeters
G90 ; use absolute coordinates
M83 ; use relative distances for extrusion

M900 K0.05 ; Filament gcode LA 1.5
M900 K30 ; Filament gcode LA 1.0




M107
;LAYER_CHANGE
;Z:0.2
;HEIGHT:0.2
G1 E-.8 F2100
M73 P2 R4
M73 Q2 S4
G1 Z.6 F720
G1 X95.174 Y78.735 F10800
G1 Z.2 F720
G1 E.8 F2100
M204 S800
;TYPE:Skirt/Brim
;WIDTH:0.42
G1 F1200
G1 X95.649 Y78.161 E.02336
G1 X98.444 Y75.392 E.12336
G1 X101.499 Y72.913 E.12336
G1 X104.784 Y70.748 E.12336
M73 Q3 S4
G1 X108.266 Y68.918 E.12334
M73 P3 R4
G1 X110.353 Y68.025 E.07118
G1 X113.899 Y66.806 E.11757
G1 X117.726 Y65.895 E.12335
G1 X121.625 Y65.368 E.12336
G1 X125.556 Y65.227 E.12333
G1 X129.366 Y65.463 E.11969
G1 X133.25 Y66.087 E.12334
G1 X137.054 Y67.092 E.12336
G1 X140.74 Y68.468 E.12336
G1 X144.272 Y70.201 E.12336
G1 X147.615 Y72.274 E.12333
G1 X150.737 Y74.668 E.12335
M73 Q4 S4
G1 X153.608 Y77.358 E.12336
M73 P4 R4
G1 X156.199 Y80.319 E.12337
G1 X158.484 Y83.521 E.12334
G1 X160.442 Y86.933 E.12334
G1 X162.054 Y90.522 E.12336
G1 X163.303 Y94.253 E.12336
G1 X164.177 Y98.089 E.12336
G1 X164.668 Y101.992 E.12334
G1 X164.771 Y105.925 E.12336
G1 X164.485 Y109.849 E.12336
G1 X163.813 Y113.725 E.12334
G1 X162.762 Y117.516 E.12335
M73 P4 R3
G1 X161.341 Y121.185 E.12337
M73 Q5 S4
G1 X159.564 Y124.695 E.12335
M73 P5 R3
G1 X157.449 Y128.012 E.12335
G1 X155.017 Y131.105 E.12337
G1 X152.292 Y133.942 E.12334
G1 X149.299 Y136.496 E.12337
G1 X146.069 Y138.742 E.12335
G1 X142.633 Y140.657 E.12334
G1 X139.024 Y142.224 E.12336
G1 X135.278 Y143.427 E.12336
G1 X131.432 Y144.254 E.12334
G1 X127.523 Y144.697 E.12335
G1 X123.589 Y144.751 E.12336
G1 X119.669 Y144.417 E.12335
M73 Q6 S4
G1 X115.801 Y143.697 E.12336
M73 P6 R3
G1 X112.024 Y142.598 E.12334
G1 X108.373 Y141.132 E.12336
G1 X104.885 Y139.312 E.12336
G1 X101.594 Y137.156 E.12336
G1 X98.532 Y134.686 E.12335
G1 X95.728 Y131.926 E.12336
M73 Q6 S3
G1 X93.212 Y128.902 E.12334
G1 X91.006 Y125.644 E.12337
G1 X89.133 Y122.185 E.12333
G1 X87.611 Y118.557 E.12336
G1 X86.455 Y114.796 E.12337
G1 X85.675 Y110.94 E.12335
M73 P7 R3
M73 Q7 S3
G1 X85.281 Y107.026 E.12334
G1 X85.275 Y103.092 E.12335
G1 X85.658 Y99.176 E.12337
G1 X86.426 Y95.318 E.12334
G1 X87.571 Y91.554 E.12336
G1 X89.082 Y87.921 E.12337
G1 X90.945 Y84.456 E.12335
G1 X93.141 Y81.192 E.12335
G1 X95.135 Y78.782 E.09808
M204 S1000
;WIPE_START
G1 F8640
G1 X95.174 Y78.735 E-.0141
G1 X95.649 Y78.161 E-.17203
G1 X97.538 Y76.29 E-.61387
;WIPE_END
G1 Z.6 F720
; printing object Logo(V3).stl id:0 copy 0
G1 X117.999 Y100.233 F10800
G1 Z.2 F720
G1 E.8 F2100
M73 P8 R3
M204 S800
;TYPE:Perimeter
;WIDTH:0.376398
G1 F1200
M73 Q8 S3
G1 X117.477 Y100.891 E.02329
;WIDTH:0.384827
G1 X117.118 Y101.272 E.01488
;WIDTH:0.385139
G1 X116.538 Y101.777 E.02188
G1 X115.909 Y102.218 E.02186
;WIDTH:0.384725
G1 X115.236 Y102.59 E.02186
;WIDTH:0.383588
G1 X114.528 Y102.889 E.02177
;WIDTH:0.381726
G1 X113.764 Y103.117 E.02246
;WIDTH:0.37921
G1 X112.907 Y103.264 E.02431
;WIDTH:0.377085
G1 X112.039 Y103.309 E.02415
;WIDTH:0.375685
G1 X111.257 Y103.261 E.02168
;WIDTH:0.385094
G1 X110.74 Y103.186 E.01486
G1 X109.995 Y103.003 E.02183
;WIDTH:0.38489
G1 X109.207 Y102.711 E.0239
;WIDTH:0.383108
G1 X108.58 Y102.405 E.01974
;WIDTH:0.38261
G1 X107.928 Y101.998 E.02171
;WIDTH:0.380334
G1 X107.261 Y101.463 E.02399
;WIDTH:0.377905
G1 X106.652 Y100.842 E.02423
;WIDTH:0.376196
G1 X106.138 Y100.179 E.02325
;WIDTH:0.384916
G1 X105.861 Y99.75 E.01452
;WIDTH:0.385121
G1 X105.508 Y99.068 E.02185
G1 X105.229 Y98.352 E.02187
;WIDTH:0.384607
G1 X105.027 Y97.61 E.02185
;WIDTH:0.383365
G1 X104.904 Y96.851 E.02177
;WIDTH:0.381397
G1 X104.865 Y96.04 E.02285
;WIDTH:0.378863
G1 X104.927 Y95.173 E.02428
;WIDTH:0.376838
G1 X105.091 Y94.32 E.02412
;WIDTH:0.375545
G1 X105.325 Y93.572 E.02168
;WIDTH:0.385121
G1 X105.515 Y93.101 E.01445
G1 X105.87 Y92.419 E.02188
;WIDTH:0.384916
G1 X106.296 Y91.779 E.02186
;WIDTH:0.383983
G1 X106.786 Y91.187 E.02179
;WIDTH:0.382328
G1 X107.337 Y90.651 E.02169
;WIDTH:0.379947
G1 X108.027 Y90.122 E.02437
;WIDTH:0.377619
G1 X108.775 Y89.68 E.02418
;WIDTH:0.37601
G1 X109.49 Y89.359 E.02171
;WIDTH:0.384992
G1 X110.011 Y89.177 E.0157
;WIDTH:0.385096
G1 X110.758 Y88.995 E.02188
G1 X111.518 Y88.894 E.02181
;WIDTH:0.385759
G1 X112.359 Y88.881 E.02398
G1 X113.054 Y88.935 E.01987
;WIDTH:0.381056
G1 X113.865 Y89.094 E.02324
;WIDTH:0.378534
G1 X114.692 Y89.361 E.02425
;WIDTH:0.376616
G1 X115.482 Y89.724 E.02412
;WIDTH:0.384727
G1 X115.924 Y89.976 E.01446
;WIDTH:0.385136
G1 X116.553 Y90.419 E.02189
G1 X117.131 Y90.925 E.02186
;WIDTH:0.384825
G1 X117.652 Y91.491 E.02187
;WIDTH:0.383795
G1 X118.11 Y92.108 E.02178
;WIDTH:0.382034
G1 X118.506 Y92.783 E.02207
;WIDTH:0.379572
G1 X118.854 Y93.579 E.02432
;WIDTH:0.377347
G1 X119.105 Y94.411 E.02417
;WIDTH:0.37584
G1 X119.246 Y95.182 E.0217
;WIDTH:0.385049
G1 X119.297 Y95.717 E.01529
G1 X119.296 Y96.486 E.02188
G1 X119.214 Y97.25 E.02186
;WIDTH:0.384325
G1 X119.051 Y98.001 E.02182
;WIDTH:0.382877
G1 X118.81 Y98.731 E.02173
;WIDTH:0.380705
G1 X118.456 Y99.493 E.0236
;WIDTH:0.378212
G1 X118.031 Y100.182 E.02257
M204 S1000
G1 X118.031 Y100.182 F10800
G1 X118.284 Y100.444
M204 S800
;TYPE:External perimeter
;WIDTH:0.419999
G1 F1200
G1 X117.718 Y101.153 E.02845
G1 X117.137 Y101.733 E.02574
G1 X116.745 Y102.071 E.01623
G1 X116.083 Y102.533 E.02531
G1 X115.376 Y102.921 E.02529
G1 X114.632 Y103.232 E.02528
M73 P9 R3
G1 X113.83 Y103.467 E.0262
G1 X112.936 Y103.619 E.02843
M73 Q9 S3
G1 X112.03 Y103.664 E.02844
G1 X111.159 Y103.606 E.02737
G1 X110.655 Y103.535 E.01596
G1 X109.87 Y103.34 E.02536
G1 X109.05 Y103.033 E.02745
G1 X108.389 Y102.709 E.02308
G1 X107.707 Y102.279 E.02528
G1 X107.013 Y101.718 E.02798
G1 X106.379 Y101.069 E.02845
G1 X105.826 Y100.35 E.02844
G1 X105.402 Y99.647 E.02574
G1 X105.173 Y99.199 E.01578
G1 X104.882 Y98.446 E.02531
G1 X104.672 Y97.667 E.0253
G1 X104.547 Y96.87 E.02529
G1 X104.509 Y96.021 E.02665
G1 X104.576 Y95.117 E.02842
G1 X104.749 Y94.226 E.02846
G1 X104.994 Y93.443 E.02572
G1 X105.196 Y92.935 E.01714
G1 X105.571 Y92.22 E.02531
G1 X106.019 Y91.55 E.02527
G1 X106.537 Y90.93 E.02533
G1 X107.117 Y90.37 E.02528
G1 X107.838 Y89.82 E.02843
G1 X108.62 Y89.36 E.02845
G1 X109.45 Y88.996 E.02842
G1 X109.926 Y88.827 E.01584
G1 X110.71 Y88.639 E.02528
G1 X111.512 Y88.535 E.02536
G1 X112.388 Y88.522 E.02747
G1 X113.121 Y88.584 E.02306
G1 X113.968 Y88.753 E.02708
G1 X114.83 Y89.033 E.02842
G1 X115.653 Y89.414 E.02844
G1 X116.356 Y89.84 E.02577
G1 X116.79 Y90.148 E.01669
G1 X117.395 Y90.682 E.0253
G1 X117.94 Y91.276 E.02528
G1 X118.418 Y91.926 E.0253
G1 X118.831 Y92.635 E.02573
G1 X119.192 Y93.468 E.02847
G1 X119.452 Y94.336 E.02841
G1 X119.604 Y95.197 E.02741
G1 X119.657 Y95.717 E.01639
G1 X119.654 Y96.524 E.0253
G1 X119.565 Y97.326 E.0253
G1 X119.392 Y98.114 E.0253
G1 X119.136 Y98.879 E.02529
G1 X118.763 Y99.674 E.02753
G1 X118.316 Y100.393 E.02655
M204 S1000
;WIPE_START
G1 F8640
G1 X118.284 Y100.444 E-.0139
G1 X117.718 Y101.153 E-.20948
G1 X117.137 Y101.733 E-.18956
G1 X116.745 Y102.071 E-.11951
G1 X116.083 Y102.533 E-.1864
G1 X115.775 Y102.702 E-.08115
;WIPE_END
G1 Z.6 F720
G1 X118.514 Y93.628 F10800
G1 Z.2 F720
M73 P10 R3
G1 E.8 F2100
M204 S800
;TYPE:Perimeter
;WIDTH:0.382878
G1 F1200
M73 Q10 S3
G1 X118.728 Y94.288 E.01961
;WIDTH:0.384325
G1 X118.879 Y95.002 E.02072
;WIDTH:0.385049
G1 X118.956 Y95.727 E.02074
G1 X118.956 Y96.457 E.02077
G1 X118.879 Y97.183 E.02077
;WIDTH:0.384325
G1 X118.779 Y97.708 E.01517
;WIDTH:0.377345
G1 X118.536 Y98.503 E.02312
;WIDTH:0.379573
G1 X118.199 Y99.263 E.02327
;WIDTH:0.382036
G1 X117.819 Y99.903 E.02099
;WIDTH:0.383794
G1 X117.381 Y100.487 E.02069
;WIDTH:0.384827
G1 X116.884 Y101.022 E.02076
;WIDTH:0.385139
G1 X116.334 Y101.502 E.02077
G1 X115.738 Y101.923 E.02076
;WIDTH:0.384725
G1 X115.297 Y102.183 E.01455
;WIDTH:0.376614
G1 X114.559 Y102.518 E.02249
;WIDTH:0.37853
G1 X113.767 Y102.77 E.02319
;WIDTH:0.381058
G1 X112.992 Y102.917 E.02218
;WIDTH:0.383127
G1 X112.264 Y102.972 E.02065
;WIDTH:0.384473
G1 X111.535 Y102.95 E.02071
;WIDTH:0.385094
G1 X110.811 Y102.852 E.02079
G1 X110.106 Y102.68 E.02065
;WIDTH:0.38489
G1 X109.615 Y102.517 E.01471
;WIDTH:0.376012
G1 X108.916 Y102.203 E.02122
;WIDTH:0.377617
G1 X108.203 Y101.777 E.02311
;WIDTH:0.379949
G1 X107.545 Y101.269 E.0233
;WIDTH:0.382329
G1 X107.025 Y100.756 E.02061
;WIDTH:0.383985
G1 X106.561 Y100.192 E.02071
;WIDTH:0.384916
G1 X106.159 Y99.583 E.02075
;WIDTH:0.385121
G1 X105.823 Y98.935 E.02077
G1 X105.557 Y98.256 E.02075
;WIDTH:0.384607
G1 X105.41 Y97.772 E.01437
;WIDTH:0.376838
G1 X105.256 Y96.955 E.02308
;WIDTH:0.378863
G1 X105.201 Y96.125 E.02324
;WIDTH:0.381397
G1 X105.242 Y95.353 E.02176
;WIDTH:0.383364
G1 X105.362 Y94.633 E.02066
;WIDTH:0.384608
G1 X105.557 Y93.929 E.02075
;WIDTH:0.385121
G1 X105.823 Y93.25 E.02075
G1 X106.159 Y92.602 E.02077
;WIDTH:0.384916
G1 X106.44 Y92.155 E.01501
;WIDTH:0.376194
G1 X106.912 Y91.552 E.02122
;WIDTH:0.377903
G1 X107.496 Y90.96 E.02316
;WIDTH:0.380334
G1 X108.136 Y90.453 E.02291
;WIDTH:0.382609
G1 X108.758 Y90.069 E.02065
;WIDTH:0.384165
G1 X109.415 Y89.752 E.0207
;WIDTH:0.384992
G1 X110.102 Y89.506 E.02076
;WIDTH:0.385096
G1 X110.811 Y89.333 E.02076
G1 X111.531 Y89.235 E.02067
;WIDTH:0.385759
G1 X112.337 Y89.223 E.02298
G1 X112.877 Y89.253 E.01542
;WIDTH:0.379214
G1 X113.703 Y89.399 E.02346
;WIDTH:0.381727
G1 X114.429 Y89.619 E.02137
;WIDTH:0.383588
G1 X115.1 Y89.907 E.02068
;WIDTH:0.384727
G1 X115.738 Y90.262 E.02075
;WIDTH:0.385136
G1 X116.334 Y90.682 E.02075
G1 X116.884 Y91.162 E.02077
;WIDTH:0.384825
G1 X117.262 Y91.552 E.01544
;WIDTH:0.376398
G1 X117.734 Y92.154 E.02121
;WIDTH:0.378211
G1 X118.168 Y92.863 E.02318
;WIDTH:0.380706
G1 X118.493 Y93.572 E.02191
M204 S1000
G1 X118.493 Y93.572 F10800
G1 X118.176 Y93.74
M204 S800
;TYPE:External perimeter
;WIDTH:0.419999
G1 F1200
G1 X118.386 Y94.394 E.02154
G1 X118.526 Y95.066 E.02152
G1 X118.597 Y95.749 E.02153
G1 X118.597 Y96.436 E.02154
G1 X118.526 Y97.118 E.0215
G1 X118.43 Y97.644 E.01676
M73 P11 R3
G1 X118.196 Y98.397 E.02472
G1 X117.874 Y99.117 E.02473
G1 X117.512 Y99.718 E.022
G1 X117.098 Y100.266 E.02153
G1 X116.63 Y100.768 E.02152
M73 Q11 S3
G1 X116.113 Y101.219 E.02151
G1 X115.552 Y101.615 E.02153
G1 X115.111 Y101.88 E.01613
G1 X114.413 Y102.194 E.024
G1 X113.661 Y102.43 E.02471
G1 X112.928 Y102.566 E.02337
G1 X112.243 Y102.614 E.02153
G1 X111.556 Y102.591 E.02155
G1 X110.876 Y102.498 E.02152
G1 X110.212 Y102.336 E.02143
G1 X109.498 Y102.076 E.02383
G1 X109.062 Y101.88 E.01499
G1 X108.387 Y101.473 E.02471
G1 X107.765 Y100.988 E.02473
G1 X107.278 Y100.503 E.02155
G1 X106.844 Y99.971 E.02153
G1 X106.467 Y99.397 E.02153
G1 X106.151 Y98.787 E.02154
G1 X105.9 Y98.149 E.0215
G1 X105.749 Y97.666 E.01587
G1 X105.606 Y96.891 E.02471
G1 X105.557 Y96.104 E.02472
G1 X105.599 Y95.374 E.02293
G1 X105.715 Y94.697 E.02154
G1 X105.9 Y94.036 E.02152
G1 X106.151 Y93.397 E.02153
G1 X106.467 Y92.788 E.02151
G1 X106.844 Y92.214 E.02153
G1 X107.191 Y91.771 E.01764
G1 X107.748 Y91.212 E.02474
G1 X108.356 Y90.734 E.02425
G1 X108.943 Y90.375 E.02157
G1 X109.563 Y90.08 E.02153
G1 X110.209 Y89.849 E.02151
G1 X110.876 Y89.687 E.02152
G1 X111.553 Y89.594 E.02143
G1 X112.32 Y89.582 E.02405
G1 X112.86 Y89.608 E.01695
G1 X113.638 Y89.749 E.02479
G1 X114.322 Y89.961 E.02245
G1 X114.953 Y90.234 E.02156
G1 X115.552 Y90.57 E.02153
G1 X116.113 Y90.965 E.02151
G1 X116.63 Y91.417 E.02153
G1 X117.098 Y91.919 E.02152
G1 X117.454 Y92.374 E.01811
G1 X117.863 Y93.048 E.02472
G1 X118.152 Y93.685 E.02193
M204 S1000
;WIPE_START
G1 F8640
G1 X118.176 Y93.74 E-.01386
G1 X118.386 Y94.394 E-.1586
G1 X118.526 Y95.066 E-.1585
G1 X118.597 Y95.749 E-.15856
G1 X118.597 Y96.436 E-.15863
G1 X118.529 Y97.09 E-.15185
;WIPE_END
G1 Z.6 F720
G1 X123.633 Y68.036 F10800
G1 Z.2 F720
G1 E.8 F2100
M204 S800
G1 F1200
G1 X125.643 Y68.02 E.06302
G1 X127.292 Y68.081 E.05174
M73 P12 R3
G1 X129.115 Y68.239 E.05737
M73 Q12 S3
G1 X130.928 Y68.487 E.05737
G1 X132.726 Y68.825 E.05736
G1 X134.506 Y69.251 E.05739
G1 X136.262 Y69.764 E.05736
G1 X137.991 Y70.364 E.05738
G1 X139.688 Y71.049 E.05738
G1 X141.349 Y71.816 E.05736
G1 X142.97 Y72.665 E.05737
G1 X144.547 Y73.593 E.05737
G1 X146.076 Y74.598 E.05737
G1 X147.554 Y75.677 E.05738
G1 X148.977 Y76.828 E.05739
G1 X150.34 Y78.048 E.05735
G1 X151.642 Y79.334 E.05738
G1 X152.879 Y80.683 E.05739
G1 X154.047 Y82.091 E.05736
G1 X155.145 Y83.555 E.05738
G1 X156.168 Y85.072 E.05737
G1 X157.116 Y86.637 E.05737
G1 X157.985 Y88.248 E.05739
G1 X158.773 Y89.899 E.05736
G1 X159.478 Y91.588 E.05739
G1 X160.099 Y93.309 E.05737
G1 X160.635 Y95.059 E.05739
G1 X161.083 Y96.833 E.05737
G1 X161.442 Y98.627 E.05736
M73 P13 R3
G1 X161.713 Y100.437 E.05738
G1 X161.894 Y102.257 E.05735
M73 Q13 S3
G1 X161.984 Y104.097 E.05776
G1 X161.984 Y105.915 E.057
G1 X161.894 Y107.743 E.05738
G1 X161.713 Y109.563 E.05735
G1 X161.442 Y111.373 E.05738
G1 X161.083 Y113.167 E.05736
G1 X160.635 Y114.941 E.05737
G1 X160.099 Y116.691 E.05739
G1 X159.478 Y118.412 E.05737
G1 X158.773 Y120.101 E.05739
G1 X157.985 Y121.752 E.05736
G1 X157.116 Y123.363 E.05739
G1 X156.168 Y124.928 E.05737
G1 X155.145 Y126.445 E.05737
G1 X154.047 Y127.909 E.05738
G1 X152.879 Y129.317 E.05736
G1 X151.642 Y130.666 E.05739
G1 X150.34 Y131.952 E.05738
G1 X148.976 Y133.172 E.05738
G1 X147.554 Y134.323 E.05736
G1 X146.076 Y135.402 E.05738
G1 X144.547 Y136.407 E.05737
G1 X142.97 Y137.335 E.05737
G1 X141.349 Y138.184 E.05737
G1 X139.688 Y138.951 E.05736
G1 X137.991 Y139.636 E.05738
M73 P14 R3
G1 X136.262 Y140.236 E.05738
G1 X134.506 Y140.749 E.05736
M73 Q14 S3
G1 X132.726 Y141.175 E.05739
G1 X130.928 Y141.513 E.05736
G1 X129.115 Y141.761 E.05737
G1 X127.292 Y141.919 E.05737
G1 X125.463 Y141.987 E.05739
G1 X123.634 Y141.964 E.05735
G1 X121.807 Y141.851 E.05739
G1 X119.989 Y141.648 E.05736
G1 X118.182 Y141.355 E.0574
G1 X116.393 Y140.973 E.05736
G1 X114.624 Y140.503 E.05739
G1 X112.881 Y139.946 E.05737
G1 X111.168 Y139.304 E.05736
G1 X109.488 Y138.578 E.05738
G1 X107.847 Y137.769 E.05737
G1 X106.247 Y136.881 E.05738
G1 X104.694 Y135.914 E.05736
G1 X103.19 Y134.872 E.05737
G1 X101.739 Y133.756 E.0574
G1 X100.345 Y132.57 E.05739
G1 X99.012 Y131.317 E.05736
G1 X97.743 Y129.999 E.05737
G1 X96.54 Y128.621 E.05735
G1 X95.406 Y127.184 E.0574
G1 X94.345 Y125.693 E.05738
M73 P15 R3
G1 X93.36 Y124.151 E.05737
G1 X92.451 Y122.563 E.05737
G1 X91.622 Y120.931 E.05739
M73 Q15 S3
G1 X90.875 Y119.261 E.05736
G1 X90.212 Y117.556 E.05736
G1 X89.634 Y115.82 E.05737
G1 X89.142 Y114.057 E.05739
G1 X88.738 Y112.272 E.05738
G1 X88.423 Y110.47 E.05736
G1 X88.197 Y108.654 E.05738
G1 X88.061 Y106.829 E.05738
G1 X88.016 Y105 E.05736
G1 X88.061 Y103.171 E.05736
